T: Great North Run, The
M: 4/4
L: 1/8
K: Gmaj
G2 G2 F>GA>F | G>AB>c d2 G2 | e2 e2 d>B (3GAB | ABAG (3EFE D2 |G2 G2 F>G (3AGF | G>AB>c d2 G2 | e2 ce dGDG | A2 D2 G2 :|g2 g2 f>d (3Bcd | e>d^c>e d2 G2 | e2 c>e d2 G>B | A2 (3BAG E2 D2 |G2 G2 F2 (3FGA | G2 (3ABc d2 G2 | e>d (3cde d>GB>G | A>F (3DEF G2 :|
